assets/images/members/thales/thales.svg

<svg version="1.2" xmlns="http://www.w3.org/2000/svg" viewBox="0 0 484 58">
	<title>Thales</title>
	<style>
		.s0 { fill: #2c2f73 } 
		.s1 { fill: #5ebfd4 } 
	</style>
	<g id="Thales">
		<path id="Layer" class="s0" d="m483.8 42.1c0 7.8-2.3 10.1-8.5 12-6.7 2-18.6 3.3-25.7 3.3-8.4 0-18.9-0.5-27.8-2.6v-9h49.3v-12.3h-34.9c-10.5 0-14.4-2.9-14.4-13.1v-5.4c0-8.1 2.4-10.5 8.9-12.2 6.6-1.7 17.4-2.8 24.5-2.8 8.6 0 18.9 0.7 27.8 2.7v9h-48.5v10.3h34.9c10.5 0 14.4 2.8 14.4 13.1z"/>
		<path id="Layer" class="s0" d="m399.7 54.7c-10.2 2-20.5 2.6-30.5 2.6-10 0-20.4-0.6-30.7-2.6v-52c10.2-2 20.6-2.7 30.5-2.7 10 0 20.1 0.6 30.3 2.7v9.3h-46.2v10.4h30.1v10.8h-30.1v12.3h46.4v9.2z"/>
		<path id="Layer" class="s0" d="m321 54.7c-9.2 2-18.4 2.6-27.3 2.6-8.9 0-18.3-0.5-27.5-2.6v-53.4h14.7v43.5h40.1z"/>
		<path id="Layer" class="s0" d="m248.6 55.1c-4.9 1.4-11.4 1.9-16.2 2l-22.7-45.8h-1.3l-22.6 45.8c-4.8-0.1-10.5-0.6-15.4-2l28.7-53.7h20.5z"/>
		<path id="Layer" class="s1" d="m218.7 41.4c0 5.3-4.3 9.5-9.6 9.5-5.3 0-9.5-4.3-9.5-9.5 0-5.3 4.3-9.5 9.5-9.5 5.3 0 9.6 4.2 9.6 9.5z"/>
		<path id="Layer" class="s0" d="m152.7 55.1c-4.7 1.4-9.7 1.8-14.7 1.9v-23.3h-36.5v23.3c-5-0.1-10-0.6-14.7-1.9v-52.8c4.7-1.4 9.7-1.8 14.7-1.9v22.5h36.5v-22.5c5 0.1 10 0.6 14.7 1.9z"/>
		<path id="Layer" class="s0" d="m66.2 12.1h-25.8v44h-14.6v-44h-25.8v-9.4c11.1-2 22.3-2.7 33.1-2.7 10.8 0 22 0.6 33.1 2.7z"/>
	</g>
</svg>

<svg xmlns="http://www.w3.org/2000/svg" viewBox="0 0 484 58"><title>Thales</title><style>.s0{fill:#2c2f73}</style><g id="Thales"><path id="Layer" d="M483.8 42.1c0 7.8-2.3 10.1-8.5 12-6.7 2-18.6 3.3-25.7 3.3-8.4 0-18.9-.5-27.8-2.6v-9h49.3V33.5h-34.9c-10.5 0-14.4-2.9-14.4-13.1V15c0-8.1 2.4-10.5 8.9-12.2 6.6-1.7 17.4-2.8 24.5-2.8 8.6 0 18.9.7 27.8 2.7v9h-48.5V22h34.9c10.5 0 14.4 2.8 14.4 13.1z" class="s0"/><path d="M399.7 54.7c-10.2 2-20.5 2.6-30.5 2.6s-20.4-.6-30.7-2.6v-52C348.7.7 359.1 0 369 0c10 0 20.1.6 30.3 2.7V12h-46.2v10.4h30.1v10.8h-30.1v12.3h46.4v9.2zM321 54.7c-9.2 2-18.4 2.6-27.3 2.6s-18.3-.5-27.5-2.6V1.3h14.7v43.5H321zM248.6 55.1c-4.9 1.4-11.4 1.9-16.2 2l-22.7-45.8h-1.3l-22.6 45.8c-4.8-.1-10.5-.6-15.4-2l28.7-53.7h20.5z" class="s0"/><path d="M218.7 41.4c0 5.3-4.3 9.5-9.6 9.5s-9.5-4.3-9.5-9.5c0-5.3 4.3-9.5 9.5-9.5 5.3 0 9.6 4.2 9.6 9.5" style="fill:#5ebfd4"/><path d="M152.7 55.1C148 56.5 143 56.9 138 57V33.7h-36.5V57c-5-.1-10-.6-14.7-1.9V2.3C91.5.9 96.5.5 101.5.4v22.5H138V.4c5 .1 10 .6 14.7 1.9zM66.2 12.1H40.4v44H25.8v-44H0V2.7C11.1.7 22.3 0 33.1 0s22 .6 33.1 2.7z" class="s0"/></g></svg>
